X:1
T:Boys of Bluehill (Hornpipe), The
R:hornpipe
M:4/4
L:1/8
O:Trad. (18.9.2014/NS)
K:Dmaj
|:dB| "D"BAFA D2 FA| "G"BA (3Bcd "A" e2 de| "D"fa gf "Em"egfe| "Hm"dfed "G"B2dB|
"D"BAFA D2FA| "G"BA (3Bcd "A"e2 de| "D"fagf "A7"egfe|"D"d2 d2 d2 :|
|:fg | "D"afdf a2gf| "A"efga b2 ag| "D"fagf "Em"egfe| "Hm"dfed "G"B2 dB|
"D"BA FA D2 FA| "Hm7" BA (3Bcd "Em"e2de| "D"fagf "A7"egfe| "D"d2 d2 d2 :|]
